X:34
T: Die Brombeerpflueckerin
N: Q0147
O: Mitteleuropa, Deutschland / Frankreich, Lothringen, Forbach, Kerbach
N: Zwei Notenwerte in der 5. Zeile rhythmisch korrigiert.
N: Vierte und siebte Zeile refrainartig.
R: Ballade, Verfuehrung, Schwangerschaft
M: 4/4
L: 1/8
K: G
D2 | G2G2GGGG | E2E2D2
D2 | D2c2B2A2 | G4z2
GA | B3GB2d2 | d2c2A3
d | d3ff3e | e2d2B2
dd | d2c2E2F2 | GGBAG2
GA | B3GB2d2 | d2c2A3
d | d3ff3e | e2d2B2
dd | d2c2E2F2 | G4z2

